X: 1
T: McDermott's
M: 2/4
L: 1/8
R: polka
K: Dmaj
A2AF/A/|BA FE|DB BA|B2 Bc|
da f/g/f/e/|dB BA|FB BA|1B2 BG :|2B2 Bc||
|:d2 de/f/|ec Ac|dB BA|FB BA|
d2 de/f/|ec Ac|Bb ba|b2 ba|
f2 fe|da fe|df BA|df BA|
dc/d/ ed/e/|fb ba|fb ba|fe dB||
